X:2238
M:3/4
L:1/8
K:Am
|C2E2D2 | ^F2A2G2 | C2E2D2 | z6 | C2E2D2 | ^F2A2G2 |z6 | AA3z2 | AA3z2 | A/A/ z5 ||

(:musicend:)


(:music:)
